icons/folder_type_interfaces_opened.svg

<svg xmlns="http://www.w3.org/2000/svg" viewBox="0 0 32 32"><path d="M27.4 5.5h-9.2l-2.1 4.2H4.3v4H.5l3.8 12.8h25.2v-21Zm-7.2 2.1h7.1v2.1h-8.1Zm5.5 6.1H6.6v-1.9h20.8v7.6Z" style="fill:#b6c133"/><path d="M31.239 18.461H23.3a3.458 3.458 0 1 0-1.874 4.612 3.965 3.965 0 0 0 2.018-1.729h7.789a8.333 8.333 0 0 1 .006-2.883Zm-11.108 3.026a1.585 1.585 0 1 1 1.585-1.587 1.584 1.584 0 0 1-1.585 1.587Z" style="fill:#fff"/><path d="M25.239 13.951a7.909 7.909 0 1 0 .772 10.965" style="fill:none;stroke:#fff;stroke-miterlimit:10;stroke-width:2px"/></svg>

<svg xmlns="http://www.w3.org/2000/svg" viewBox="0 0 32 32"><title>folder_type_interfaces_opened</title><path d="M27.4,5.5H18.2L16.1,9.7H4.3v4H.5L4.3,26.5H29.5V5.5ZM20.2,7.6h7.1V9.7H19.2Zm5.5,6.1H6.6V11.8H27.4v7.6Z" style="fill:#b6c133"/><path d="M31.239,18.461H23.3a3.458,3.458,0,1,0-1.874,4.612,3.965,3.965,0,0,0,2.018-1.729h7.789A8.333,8.333,0,0,1,31.239,18.461ZM20.131,21.487A1.585,1.585,0,1,1,21.716,19.9,1.584,1.584,0,0,1,20.131,21.487Z" style="fill:#fff"/><path d="M25.239,13.951a7.909,7.909,0,1,0,.772,10.965" style="fill:none;stroke:#fff;stroke-miterlimit:10;stroke-width:2px"/></svg>
